X:1
T:Sa-sa
R:sa-sa
M:2/4
L:1/8
K:Em
"Em"EEGA|BBcA|GGA=F|EEED|"C"GAG=F|"D"GAG=F|"Em"E2z.E|.e.E.e.E|
"Em"EEGA|BBcA|GGA=F|EEED|"C"GAG=F|"D"GAG=F|"Em"E2z.B,|.E.B,.E2:|
|:"^unis"zD=F^F|G2G2|F2=F^F|.G2G2-|GD=F^F|G2G2|F2=F^F|G2"E7"L^G2|
"Am"zGAG|AG=FE|"Em"E2z.E|.e.E.e.E|"C"zGAG|"D"AG=FE|"Em"E2z.B,|.E.B,.E2:|
|:"G"z(Bcd|B2AB)|z(B,CD|B,2A,B,)|"Am"z(ABc|A2GA)|z(A,B,C|A,2G,A,)|
"F"z(=FGA|=F2EF)|z(=F,G,A,|=F,2E,F,)|"C".d.B.c.A|"D".B.G.A.=F|"Em"LE2z=F|EDE2:|

